X: 270
T: Boys, Them Buzzards are Flying
C:Gary Harrison
B: canberra pickers and fiddlers
B: tunes
M:4/4
L:1/8
R: reel
Q: 1/4=100
K:A
V:1 
(e2 | "A"e)eee cBAF | A2 AA FEDD | "D"DDFD =GDFD | "A"DE2F E2 (e2 | 
"A"e)eee cBAF | A2 AA FEDD | "D"DDFD =GDFD | "A"DE2F E2 E(F || 
"A"F)E F2 A3B | A2 (c2 c)BcB | A3B A2(c2 | c)BcB ABAE | 
"D"F""AFE D2 DD | DDFD =GDFD | "A"DE2F E2 E(F | F)E F2 A3B | 
"A"A2(c2 c)BcB | A3B A2(c2 | c)BcB ABAE | "D"FAFE D2 DD | 
"D"DDFD =GDFD | "A"DE2F E2 E(F | F)E F2 A3B | A4 || 
% abcbook-tune_id 63ae8f1c62e8dbe40b9d833a
% abcbook-tune_composer_id 
% abcbook-link-0 https://www.youtube.com/watch?v=OihT6VP2WDU
% abcbook-boost 0
% abcbook-difficulty 0
% abcbook-tags canberra pickers and fiddlers,old time tunes,© free
% abcbook-tablature 
% abcbook-transpose 
% abcbook-tuning AEAE
% abcbook-lastupdated 1706789244155
% abcbook-src-url https://tunebook.net/scrape/tunes.abc
% abcbook-soundfonts 
% abcbook-repeats 1


